!!!COM: Palestrina, Giovanni Perluigi da
!!!OPR: Missa Gia fu chi m'ebbe cara
!!!OTL: Sanctus
**kern	**kern	**kern	**kern
*Ibass	*Itenor	*Icalto	*Icant
!Bassus	!Tenor	!Altus	!Cantus
*clefF4	*clefGv2	*clefG2	*clefG2
*k[]	*k[]	*k[]	*k[]
*D:dor	*D:dor	*D:dor	*D:dor
*M4/2	*M4/2	*M4/2	*M4/2
=1	=1	=1	=1
0r	1d	1r	0r
.	2.f	1d	.
.	4e	.	.
=2	=2	=2	=2
0r	1d	1.f	1.a
.	1c	.	.
.	.	2e	2g
=3	=3	=3	=3
1r	2F	2f	2a
.	2f	2d	2b
1A	1e	2.c	1cc
.	.	4d	.
=4	=4	=4	=4
1.c	2r	1e	0g
.	1e	.	.
.	.	2r	.
2B	2d	[2g	.
=5	=5	=5	=5
2c	2.e	2g]	2r
2A	.	1cc	1ee
.	4f	.	.
1G	1g	.	.
.	.	2b	2dd
=6	=6	=6	=6
0r	2c	2cc	2ee
.	2d	2a	2ff
.	2.e	2g	1gg
.	.	[2cc	.
.	4f	.	.
=7	=7	=7	=7
1r	1g	4cc]	2dd
.	.	4b	.
.	.	2b	4gg
.	.	.	4ff
[1A	2.c	2cc	4ee
.	.	.	4dd
.	.	[2a	4cc
.	4d	.	4b
=8	=8	=8	=8
2A]	4e	2a]	4cc
.	4f	.	4dd
2G	2g	2b	1ee
2A	1f	2cc	.
2B	.	4b	[2dd
.	.	4a	.
=9	=9	=9	=9
1c	1e	[0g	4dd]
.	.	.	4cc
.	.	.	1cc
[1G	2r	.	.
.	[2d	.	4b
.	.	.	4a
=10	=10	=10	=10
1G]	4d]	1g]	1b
.	4d	.	.
.	2d	.	.
2r	1e	2r	2r
[2G	.	[2g	[2b
=11	=11	=11	=11
4G]	1d	4g]	4b]
4G	.	4g	4b
2G	.	2g	2b
1F	2.f	1a	1cc
.	4e	.	.
=12	=12	=12	=12
1G	2d	1g	2b
.	2G	.	1dd
1r	1A	2f	.
.	.	2e	2cc
=13	=13	=13	=13
0r	1d	4d	2b
.	.	4e	.
.	.	4f	4a
.	.	4g	4b
.	2r	4a	4cc
.	.	4b	4dd
.	4A	[2cc	[2ee
.	4B	.	.
=14	=14	=14	=14
0r	4c	2cc]	2ee]
.	4d	.	.
.	4e	4b	2ee
.	4f	4a	.
.	2g	2b	2.dd
.	2d	[2a	.
.	.	.	4cc
=15	=15	=15	=15
1r	1e	2a]	1b
.	.	2g#	.
2r	2r	1a	1a
[2d	[2f	.	.
=16	=16	=16	=16
4d]	4f]	2r	1dd
4d	4f	.	.
2d	2f	2.a	.
1e	1g	.	2b
.	.	4g	.
.	.	[2g	2cc
=17	=17	=17	=17
1d	1a	2g]	2dd
.	.	2f	2a
2c	2e	1g	2cc
2B	2d	.	[2dd
=18	=18	=18	=18
2.A	1e	1a	2dd]
.	.	.	2cc
4G	.	.	.
2F	1d	2r	2dd
2G	.	2g	2b-
=19	=19	=19	=19
1D	2r	2f	0a
.	2d	2d	.
1A	2c	1e	.
.	2A	.	.
=20	=20	=20	=20
0r	1B-	2d	2r
.	.	2.f	2dd
.	2A	.	2cc
.	.	4e	.
.	2F	[2a	2a
=21	=21	=21	=21
1r	1G	4a]	1b-
.	.	4g	.
.	.	2g	.
2r	1d	2f	2a
2d	.	2d	2f
=22	=22	=22	=22
2c	0r	2e	2g
2A	.	1f	1a
1B-	.	.	.
.	.	4e	2g
.	.	4d	.
=23	=23	=23	=23
2A	2r	4c	1f
.	.	4A	.
2F	2a	1d	.
2G	2g	.	1e
2A	2e	2c#	.
=24	=24	=24	=24
1D	1f	2d	1a
.	.	2a	.
1r	1e	2g	2b
.	.	2e	2cc
=25	=25	=25	=25
1r	2r	1f	1dd
.	2d	.	.
1A	2c	1e	1ee
.	2A	.	.
=26	=26	=26	=26
2G	2B	1g	2r
2E	1c	.	2ee
1F	.	1a	2cc
.	4B	.	2dd
.	4A	.	.
=27	=27	=27	=27
0E	2B	2g#	1ee
.	2c	1a	.
.	1B	.	1ee
.	.	2g#	.
=28	=28	=28	=28
1A	2A	2a	2r
.	1a	1cc	1ff
1r	.	.	.
.	[2g	[2b	[2ee
=29	=29	=29	=29
0r	2g]	2b]	2ee]
.	2f	2a	2dd
.	1e	2cc	2.ee
.	.	[2b	.
.	.	.	4dd
=30	=30	=30	=30
0r	2f	4b]	2cc
.	.	4a	.
.	2d	1a	2dd
.	1e	.	1b
.	.	2g#	.
=31	=31	=31	=31
2r	2r	0a	1a
1d	1f	.	.
.	.	.	1r
[2c	[2e	.	.
=32	=32	=32	=32
2c]	2e]	2r	1gg
2B-	2d	1dd	.
1A	1a	.	2ff
.	.	[2cc	[2ee
=33	=33	=33	=33
1G	2r	2cc]	2ee]
.	2g	1b-	1dd
1A	2f	.	.
.	[2e	[2a	2cc
=34	=34	=34	=34
1B-	2e]	2a]	2.dd
.	1d	2g	.
.	.	.	4ee
1A	.	[1a	2ff
.	2c	.	[2ee
=35	=35	=35	=35
2F	1f	0a]	4ee]
.	.	.	4dd
2D	.	.	1dd
1A	1e	.	.
.	.	.	2cc#
=36	=36	=36	=36
0D	0d	0f#	0dd
==	==	==	==
*-	*-	*-	*-
!!!CDT: 1525/^1526/-1594/2/2
!!!OCY: Italia
!!!AGN: Mass (Parody)
!!!AST: renaissance, vocal
!!!ASW: Madrigal 1555 (Palestrina)
!!!PWK: Masses, Book 10
!!!RNB: Cadence finals: A
!!!YOR: Le Opere Complete, v. 27, p. 30
!!!YOO: Rome, Italy: Fratelli Scalera
!!!END: 1992//
!!!EED: John Miller
!!!YEC: Copyright 2000, John Miller
!!!YEN: United States of America
!!!YEM: Rights to all derivative electronic formats reserved.
!!!YEM: Refer to licensing agreement for further details.
!!!YEM: This file must be accompanied by the licensing agreement.
!!!YEM: A copy of the licensing agreement may be found at http://www.music-cog.ohio-state.edu/HumdrumDatabases/Palestrina/license.txt
!!!EMD: converted to Humdrum by Bret Aarden
